build/img/close.svg

<svg fill="#fff" xmlns="http://www.w3.org/2000/svg" width="24" height="24"><path d="M16.192 6.344l-4.243 4.242-4.242-4.242-1.414 1.414L10.535 12l-4.242 4.242 1.414 1.414 4.242-4.242 4.243 4.242 1.414-1.414L13.364 12l4.242-4.242z"/></svg>364 12 17.606 7.758z"/></svg>

<svg fill="#fff" xmlns="http://www.w3.org/2000/svg" width="24" height="24" viewBox="0 0 24 24"><path d="M16.192 6.344L11.949 10.586 7.707 6.344 6.293 7.758 10.535 12 6.293 16.242 7.707 17.656 11.949 13.414 16.192 17.656 17.606 16.242 13.364 12 17.606 7.758z"/></svg>
